_inc/images/help-random.svg

<svg viewBox="0 0 99 19" xmlns="http://www.w3.org/2000/svg"><g stroke="#666"><ellipse cx="7.321" cy="6.388" fill="#666" rx="3" ry="3" transform="matrix(1 0 -.000001 1 2.179012 -2.888)"/><ellipse cx="7.321" cy="6.388" fill="none" rx="3" ry="3" transform="matrix(1 0 -.000001 1 2.116377 9.112)"/><ellipse cx="7.321" cy="6.388" fill="none" rx="3" ry="3" transform="matrix(1 0 -.000001 1 -3.820991 3.112001)"/><ellipse cx="7.321" cy="6.388" fill="none" rx="3" ry="3" transform="matrix(1 0 -.000001 1 8.179002 3.112001)"/></g><path d="m24 15.85v-12.6h4.6c1.347 0 2.407.32 3.18.96.773.647 1.16 1.6 1.16 2.86 0 .873-.187 1.59-.56 2.15-.367.553-.893 1-1.58 1.34l2.84 5.29h-2.57l-2.43-4.68h-2.34v4.68zm2.3-6.61h1.69c1.693 0 2.54-.683 2.54-2.05 0-.66-.193-1.16-.58-1.5-.38-.34-1.003-.51-1.87-.51h-1.78zm16.538 6.61-1.04-2.99h-4.59l-1.04 2.99h-2.24l4.49-12.6h2.17l4.49 12.6zm-4.91-5h3.15l-1.57-4.5zm8.59 5v-12.6h2.26l5.39 8.14v-8.14h2.3v12.6h-1.89l-5.76-8.64v8.64zm12.725 0v-12.6h4.71c1.2 0 2.274.253 3.22.76.94.5 1.674 1.223 2.2 2.17.527.953.79 2.077.79 3.37 0 1.293-.263 2.417-.79 3.37-.526.947-1.26 1.67-2.2 2.17-.946.507-2.02.76-3.22.76zm2.3-2.05h2.41c1.2 0 2.117-.377 2.75-1.13.627-.747.94-1.787.94-3.12 0-1.333-.313-2.373-.94-3.12-.633-.753-1.55-1.13-2.75-1.13h-2.41zm16.11 2.3c-1.187 0-2.25-.273-3.19-.82-.947-.547-1.687-1.313-2.22-2.3-.533-.993-.8-2.137-.8-3.43 0-1.293.267-2.437.8-3.43.533-.987 1.273-1.753 2.22-2.3.94-.547 2.003-.82 3.19-.82 1.187 0 2.253.273 3.2.82.94.547 1.677 1.313 2.21 2.3.533.993.8 2.137.8 3.43 0 1.293-.267 2.437-.8 3.43-.533.987-1.27 1.753-2.21 2.3-.947.547-2.013.82-3.2.82zm0-2.23c1.227 0 2.167-.397 2.82-1.19.653-.793.98-1.837.98-3.13 0-1.293-.327-2.337-.98-3.13-.653-.793-1.593-1.19-2.82-1.19-1.227 0-2.167.397-2.82 1.19-.653.793-.98 1.837-.98 3.13 0 1.293.327 2.337.98 3.13.653.793 1.593 1.19 2.82 1.19zm7.522 1.98 1.75-12.6h1.89l3.08 5.74 3.06-5.74h1.89l1.74 12.6h-2.39l-1.08-8.44-3.22 5.79-3.24-5.77-1.08 8.42z" fill="#666"/></svg>

<?xml version="1.0" encoding="utf-8"?>
<svg viewBox="0 0 99 19" xmlns="http://www.w3.org/2000/svg" xmlns:bx="https://boxy-svg.com">
  <ellipse style="paint-order: stroke; stroke: rgb(102, 102, 102); fill: rgb(102, 102, 102);" transform="matrix(1, 0, -0.000001, 1, 2.179012, -2.888)" cx="7.321" cy="6.388" rx="3" ry="3" bx:origin="0.5 2.208"/>
  <ellipse style="stroke: rgb(102, 102, 102); fill: none;" transform="matrix(1, 0, -0.000001, 1, 2.116377, 9.112)" cx="7.321" cy="6.388" rx="3" ry="3" bx:origin="0.5 2.208"/>
  <ellipse style="stroke: rgb(102, 102, 102); fill-rule: evenodd; fill: none;" transform="matrix(1, 0, -0.000001, 1, -3.820991, 3.112001)" cx="7.321" cy="6.388" rx="3" ry="3" bx:origin="0.5 2.208"/>
  <ellipse style="stroke: rgb(102, 102, 102); fill: none;" transform="matrix(1, 0, -0.000001, 1, 8.179002, 3.112001)" cx="7.321" cy="6.388" rx="3" ry="3" bx:origin="0.5 2.208"/>
  <path d="M 24 15.85 L 24 3.25 L 28.6 3.25 L 28.6 3.25 C 29.947 3.25 31.007 3.57 31.78 4.21 L 31.78 4.21 L 31.78 4.21 C 32.553 4.857 32.94 5.81 32.94 7.07 L 32.94 7.07 L 32.94 7.07 C 32.94 7.943 32.753 8.66 32.38 9.22 L 32.38 9.22 L 32.38 9.22 C 32.013 9.773 31.487 10.22 30.8 10.56 L 30.8 10.56 L 33.64 15.85 L 31.07 15.85 L 28.64 11.17 L 26.3 11.17 L 26.3 15.85 L 24 15.85 Z M 26.3 9.24 L 27.99 9.24 L 27.99 9.24 C 29.683 9.24 30.53 8.557 30.53 7.19 L 30.53 7.19 L 30.53 7.19 C 30.53 6.53 30.337 6.03 29.95 5.69 L 29.95 5.69 L 29.95 5.69 C 29.57 5.35 28.947 5.18 28.08 5.18 L 28.08 5.18 L 26.3 5.18 L 26.3 9.24 Z M 42.838 15.85 L 41.798 12.86 L 37.208 12.86 L 36.168 15.85 L 33.928 15.85 L 38.418 3.25 L 40.588 3.25 L 45.078 15.85 L 42.838 15.85 Z M 37.928 10.85 L 41.078 10.85 L 39.508 6.35 L 37.928 10.85 Z M 46.518 15.85 L 46.518 3.25 L 48.778 3.25 L 54.168 11.39 L 54.168 3.25 L 56.468 3.25 L 56.468 15.85 L 54.578 15.85 L 48.818 7.21 L 48.818 15.85 L 46.518 15.85 Z M 59.243 15.85 L 59.243 3.25 L 63.953 3.25 L 63.953 3.25 C 65.153 3.25 66.227 3.503 67.173 4.01 L 67.173 4.01 L 67.173 4.01 C 68.113 4.51 68.847 5.233 69.373 6.18 L 69.373 6.18 L 69.373 6.18 C 69.9 7.133 70.163 8.257 70.163 9.55 L 70.163 9.55 L 70.163 9.55 C 70.163 10.843 69.9 11.967 69.373 12.92 L 69.373 12.92 L 69.373 12.92 C 68.847 13.867 68.113 14.59 67.173 15.09 L 67.173 15.09 L 67.173 15.09 C 66.227 15.597 65.153 15.85 63.953 15.85 L 63.953 15.85 L 59.243 15.85 Z M 61.543 13.8 L 63.953 13.8 L 63.953 13.8 C 65.153 13.8 66.07 13.423 66.703 12.67 L 66.703 12.67 L 66.703 12.67 C 67.33 11.923 67.643 10.883 67.643 9.55 L 67.643 9.55 L 67.643 9.55 C 67.643 8.217 67.33 7.177 66.703 6.43 L 66.703 6.43 L 66.703 6.43 C 66.07 5.677 65.153 5.3 63.953 5.3 L 63.953 5.3 L 61.543 5.3 L 61.543 13.8 Z M 77.653 16.1 L 77.653 16.1 C 76.466 16.1 75.403 15.827 74.463 15.28 L 74.463 15.28 L 74.463 15.28 C 73.516 14.733 72.776 13.967 72.243 12.98 L 72.243 12.98 L 72.243 12.98 C 71.71 11.987 71.443 10.843 71.443 9.55 L 71.443 9.55 L 71.443 9.55 C 71.443 8.257 71.71 7.113 72.243 6.12 L 72.243 6.12 L 72.243 6.12 C 72.776 5.133 73.516 4.367 74.463 3.82 L 74.463 3.82 L 74.463 3.82 C 75.403 3.273 76.466 3 77.653 3 L 77.653 3 L 77.653 3 C 78.84 3 79.906 3.273 80.853 3.82 L 80.853 3.82 L 80.853 3.82 C 81.793 4.367 82.53 5.133 83.063 6.12 L 83.063 6.12 L 83.063 6.12 C 83.596 7.113 83.863 8.257 83.863 9.55 L 83.863 9.55 L 83.863 9.55 C 83.863 10.843 83.596 11.987 83.063 12.98 L 83.063 12.98 L 83.063 12.98 C 82.53 13.967 81.793 14.733 80.853 15.28 L 80.853 15.28 L 80.853 15.28 C 79.906 15.827 78.84 16.1 77.653 16.1 L 77.653 16.1 Z M 77.653 13.87 L 77.653 13.87 C 78.88 13.87 79.82 13.473 80.473 12.68 L 80.473 12.68 L 80.473 12.68 C 81.126 11.887 81.453 10.843 81.453 9.55 L 81.453 9.55 L 81.453 9.55 C 81.453 8.257 81.126 7.213 80.473 6.42 L 80.473 6.42 L 80.473 6.42 C 79.82 5.627 78.88 5.23 77.653 5.23 L 77.653 5.23 L 77.653 5.23 C 76.426 5.23 75.486 5.627 74.833 6.42 L 74.833 6.42 L 74.833 6.42 C 74.18 7.213 73.853 8.257 73.853 9.55 L 73.853 9.55 L 73.853 9.55 C 73.853 10.843 74.18 11.887 74.833 12.68 L 74.833 12.68 L 74.833 12.68 C 75.486 13.473 76.426 13.87 77.653 13.87 L 77.653 13.87 Z M 85.175 15.85 L 86.925 3.25 L 88.815 3.25 L 91.895 8.99 L 94.955 3.25 L 96.845 3.25 L 98.585 15.85 L 96.195 15.85 L 95.115 7.41 L 91.895 13.2 L 88.655 7.43 L 87.575 15.85 L 85.175 15.85 Z" style="fill: rgb(102, 102, 102); white-space: pre;"/>
</svg>
